icons/Bell_1_filled.svg

<svg width="24" height="24" viewBox="0 0 24 24" fill="none" xmlns="http://www.w3.org/2000/svg">
<path fill-rule="evenodd" clip-rule="evenodd" d="M7.37678,5.56443c1.2483,-1.10955 2.92182,-1.81443 4.62362,-1.81443c1.7018,0 3.3752,0.70489 4.6234,1.81445c1.2495,1.11068 2.1266,2.6779 2.1266,4.43555c0,1.4127 0.0033,2.3934 0.1821,3.2451c0.1698,0.8089 0.503,1.5134 1.2149,2.3182c0.5303,0.5996 0.1886,1.6867 -0.7481,1.6867h-1.4836h-0.0264h-0.0265h-0.0533h-0.0268h-0.0268h-0.0269h-0.027h-0.0271h-0.0272h-0.0546h-0.0275h-0.0275h-0.0276h-0.0277h-0.0277h-0.0279h-0.0559h-0.0281h-0.0281h-0.0283h-0.0283h-0.0284h-0.0285h-0.0285h-0.0286h-0.0287h-0.0288h-0.0288h-0.0289h-0.029h-0.0291h-0.0291h-0.0292h-0.0587h-0.0294h-0.0295h-0.0295h-0.0296h-0.0297h-0.0298h-0.0298h-0.0299h-0.03h-0.03h-0.0301h-0.0301h-0.0303h-0.0303h-0.0303h-0.0304h-0.0305h-0.0305h-0.0306h-0.0307h-0.0307h-0.0307h-0.0309h-0.0309h-0.0309h-0.031h-0.0311h-0.0311h-0.0312h-0.0312h-0.0313h-0.0314h-0.0314h-0.0314h-0.0315h-0.0316h-0.0128c-0.1287,1.9545 -1.7547,3.5 -3.7418,3.5c-1.9871,0 -3.61316,-1.5455 -3.74181,-3.5h-0.14755h-0.48022h-0.46245h-0.22393h-0.02763h-0.02755h-0.05486h-0.0273h-0.02722h-0.02713h-0.02705h-0.81788h-0.02398h-0.02387h-0.02378h-0.02367h-0.02356h-0.02347h-0.02336h-0.02325h-0.02315h-0.02305h-0.02294h-0.02283h-0.02273h-0.02261h-0.02251h-0.02241h-0.17525h-0.0214h-0.02129h-0.02118h-0.02106h-0.02095h-0.02083h-0.02071h-0.0206h-0.02049h-0.02036h-0.02025h-0.02013h-0.02001h-0.01989h-0.01977h-0.01965h-0.01953h-0.01941h-0.01929h-0.01917h-0.01904h-0.01892h-0.01879h-0.01867h-0.01855h-0.01842h-0.01829h-0.01817h-0.07141h-0.01753h-0.0174h-0.01727h-0.01714h-0.01701h-0.01688h-0.01675h-0.01662c-0.95361,0 -1.26388,-1.1001 -0.74512,-1.6867c0.71182,-0.8047 1.0449,-1.5092 1.21463,-2.3181c0.17872,-0.8518 0.182,-1.8324 0.182,-3.2452c0,-1.75768 0.87725,-3.32491 2.1268,-4.43557zM9.76402,17.25c0.12437,1.125 1.07818,2 2.23628,2c1.1581,0 2.1119,-0.875 2.2363,-2h-0.0153h-0.0335h-0.0335h-0.0336h-0.0336h-0.0336h-0.0337h-0.0336h-0.0337h-0.0338h-0.0337h-0.0338h-0.0338h-0.0338h-0.0338h-0.0339h-0.0339h-0.0339h-0.0339h-0.034h-0.0339h-0.034h-0.034h-0.034h-0.0341h-0.034h-0.0341h-0.0341h-0.0341h-0.0341h-0.0342h-0.0341h-0.0342h-0.0341h-0.0342h-0.0342h-0.0342h-0.0343h-0.0342h-0.0343h-0.0342h-0.0343h-0.0342h-0.0343h-0.0343h-0.0343h-0.0343h-0.0343h-0.2747h-0.5493h-0.5479h-0.2727h-0.034h-0.034h-0.0339h-0.034h-0.0339h-0.0339h-0.0339h-0.0339h-0.0338h-0.0339h-0.0338h-0.0338h-0.0675h-0.0337h-0.0336h-0.2685z" fill="#002B51"/>
</svg>

<svg width="24" height="24" viewBox="0 0 24 24" fill="none" xmlns="http://www.w3.org/2000/svg">
<path fill-rule="evenodd" clip-rule="evenodd" d="M7.37678 5.56443C8.62508 4.45488 10.2986 3.75 12.0004 3.75C13.7022 3.75 15.3756 4.45489 16.6238 5.56445C17.8733 6.67513 18.7504 8.24235 18.7504 10C18.7504 11.4127 18.7537 12.3934 18.9325 13.2451C19.1023 14.054 19.4355 14.7585 20.1474 15.5633C20.6777 16.1629 20.336 17.25 19.3993 17.25H17.9157H17.8893H17.8628H17.8095H17.7827H17.7559H17.729H17.702H17.6749H17.6477H17.5931H17.5656H17.5381H17.5105H17.4828H17.4551H17.4272H17.3713H17.3432H17.3151H17.2868H17.2585H17.2301H17.2016H17.1731H17.1445H17.1158H17.087H17.0582H17.0293H17.0003H16.9712H16.9421H16.9129H16.8542H16.8248H16.7953H16.7658H16.7362H16.7065H16.6767H16.6469H16.617H16.587H16.557H16.5269H16.4968H16.4665H16.4362H16.4059H16.3755H16.345H16.3145H16.2839H16.2532H16.2225H16.1918H16.1609H16.13H16.0991H16.0681H16.037H16.0059H15.9747H15.9435H15.9122H15.8808H15.8494H15.818H15.7865H15.7549H15.7421C15.6134 19.2045 13.9874 20.75 12.0003 20.75C10.0132 20.75 8.38714 19.2045 8.25849 17.25H8.11094H7.63072H7.16827H6.94434H6.91671H6.88916H6.8343H6.807H6.77978H6.75265H6.7256H5.90772H5.88374H5.85987H5.83609H5.81242H5.78886H5.76539H5.74203H5.71878H5.69563H5.67258H5.64964H5.62681H5.60408H5.58147H5.55896H5.53655H5.3613H5.3399H5.31861H5.29743H5.27637H5.25542H5.23459H5.21388H5.19328H5.17279H5.15243H5.13218H5.11205H5.09204H5.07215H5.05238H5.03273H5.0132H4.99379H4.9745H4.95533H4.93629H4.91737H4.89858H4.87991H4.86136H4.84294H4.82465H4.80648H4.73507H4.71754H4.70014H4.68287H4.66573H4.64872H4.63184H4.61509H4.59847C3.64486 17.25 3.33459 16.1499 3.85335 15.5633C4.56517 14.7586 4.89825 14.0541 5.06798 13.2452C5.2467 12.3934 5.24998 11.4128 5.24998 10C5.24998 8.24232 6.12723 6.67509 7.37678 5.56443ZM9.76402 17.25C9.88839 18.375 10.8422 19.25 12.0003 19.25C13.1584 19.25 14.1122 18.375 14.2366 17.25H14.2213H14.1878H14.1543H14.1207H14.0871H14.0535H14.0198H13.9862H13.9525H13.9187H13.885H13.8512H13.8174H13.7836H13.7498H13.7159H13.682H13.6481H13.6142H13.5802H13.5463H13.5123H13.4783H13.4443H13.4102H13.3762H13.3421H13.308H13.2739H13.2398H13.2056H13.1715H13.1373H13.1032H13.069H13.0348H13.0006H12.9663H12.9321H12.8978H12.8636H12.8293H12.7951H12.7608H12.7265H12.6922H12.6579H12.6236H12.3489H11.7996H11.2517H10.979H10.945H10.911H10.8771H10.8431H10.8092H10.7753H10.7414H10.7075H10.6737H10.6398H10.606H10.5722H10.5047H10.471H10.4374H10.1689H9.76402Z" fill="#002B51"/>
</svg>
